public/headerImg/telegram.svg

<svg width="16" height="15" viewBox="0 0 16 15" fill="none" xmlns="http://www.w3.org/2000/svg">
<g clip-path="url(#clip0_130_64)">
<path d="M14.2383 -0.182617C13.9863 -0.103516 0.345694 5.3457 0.257803 5.4043C0.0703033 5.52441 -0.0322358 5.80273 0.026358 6.02246C0.0644439 6.16602 0.19042 6.33301 0.307608 6.39453C0.357413 6.4209 1.20409 6.75195 2.19433 7.12988C3.18456 7.50781 3.99901 7.82129 4.00487 7.82715C4.01073 7.83301 4.24511 8.71191 4.52636 9.77832C4.80761 10.8447 5.0537 11.7441 5.07128 11.7822C5.21483 12.0635 5.58398 12.1895 5.85937 12.0518C5.90038 12.0312 6.39257 11.6826 6.95214 11.2783L7.9746 10.5459L8.2412 10.7305C9.17577 11.375 11.7275 13.0947 11.8096 13.1387C11.874 13.1738 11.9736 13.1914 12.0908 13.1943C12.2432 13.1943 12.29 13.1826 12.3984 13.1064C12.4746 13.0537 12.5508 12.9658 12.5889 12.8867C12.6767 12.7109 15.0117 0.476562 14.9912 0.3125C14.9443 -0.0390625 14.5693 -0.285156 14.2383 -0.182617ZM11.6016 2.26367C11.4961 2.36621 10.1719 3.6377 8.65722 5.09375C5.45214 8.16699 5.46386 8.1582 5.43456 8.28711C5.42284 8.33691 5.40526 8.36914 5.39355 8.35449C5.38183 8.34277 5.2998 8.06152 5.21483 7.7334C5.04784 7.10352 4.98046 6.95703 4.81054 6.86914C4.76366 6.8457 4.18944 6.62012 3.53026 6.36816C2.87108 6.11621 2.31444 5.89941 2.29101 5.8877C2.26171 5.87012 3.10253 5.52441 4.8662 4.82129C6.30761 4.24707 8.44042 3.39746 9.60937 2.92871C10.7783 2.46289 11.7451 2.0791 11.7627 2.0791C11.7773 2.07617 11.707 2.16113 11.6016 2.26367ZM13.4414 2.27246C13.4267 2.35156 13.0225 4.47266 12.542 6.99219C12.0615 9.50879 11.6631 11.5771 11.6543 11.583C11.6338 11.6064 6.94335 8.4248 6.95214 8.39844C6.96093 8.36914 13.4267 2.1377 13.4502 2.1377C13.459 2.13477 13.456 2.19629 13.4414 2.27246ZM6.28124 9.40039C6.62694 9.63477 6.91112 9.83105 6.91112 9.83984C6.91112 9.86621 5.97362 10.5195 5.95898 10.5049C5.95019 10.4961 5.85058 10.1416 5.73925 9.7168C5.62792 9.29492 5.52831 8.91992 5.51659 8.8877C5.50194 8.83496 5.5078 8.83789 5.57519 8.90234C5.6162 8.94336 5.93261 9.16602 6.28124 9.40039Z" fill="white"/>
</g>
<defs>
<clipPath id="clip0_130_64">
<rect width="15" height="15" fill="white" transform="translate(0.370117)"/>
</clipPath>
</defs>
</svg>

<svg width="16" height="15" fill="none" xmlns="http://www.w3.org/2000/svg"><g clip-path="url(#a)"><path d="M14.238-.183C13.986-.103.346 5.346.258 5.404a.597.597 0 0 0-.232.618c.038.144.164.311.282.373.05.026.896.357 1.886.735.99.378 1.805.691 1.81.697.007.006.241.885.522 1.951.282 1.067.528 1.966.545 2.004.144.281.513.408.788.27.041-.02.534-.37 1.093-.774l1.023-.732.266.184c.935.645 3.486 2.365 3.569 2.409a.654.654 0 0 0 .28.055c.153 0 .2-.011.308-.088a.62.62 0 0 0 .19-.22c.089-.175 2.424-12.41 2.403-12.573-.047-.352-.422-.598-.753-.496Zm-2.636 2.447-2.945 2.83C5.452 8.167 5.464 8.158 5.435 8.287c-.012.05-.03.082-.041.067a6.993 6.993 0 0 1-.18-.62c-.166-.63-.234-.777-.403-.865a53.322 53.322 0 0 0-1.28-.5 86.306 86.306 0 0 1-1.24-.481c-.03-.018.812-.364 2.575-1.067C6.308 4.247 8.44 3.397 9.61 2.93c1.17-.466 2.136-.85 2.154-.85.014-.003-.056.082-.161.185Zm1.84.008-.9 4.72c-.48 2.517-.879 4.585-.888 4.591-.02.023-4.71-3.158-4.702-3.185.009-.029 6.475-6.26 6.498-6.26.009-.003.006.058-.009.134ZM6.281 9.4c.345.235.63.431.63.44 0 .026-.938.68-.953.665a14.577 14.577 0 0 1-.22-.788c-.111-.422-.21-.797-.222-.83-.015-.052-.01-.05.058.015.041.041.358.264.706.498Z" fill="#fff"/></g><defs><clipPath id="a"><path fill="#fff" transform="translate(.37)" d="M0 0h15v15H0z"/></clipPath></defs></svg>
